src/lib/packages/icons/src/assets/line/star-half.svg

<svg width="24" height="24" viewBox="0 0 24 24" fill="none" xmlns="http://www.w3.org/2000/svg">
<path d="M21.218 11.951C21.699 11.483 21.87 10.796 21.663 10.158C21.456 9.51902 20.9141 9.06203 20.2481 8.96503L15.766 8.31702C15.684 8.30502 15.6141 8.25399 15.5771 8.17999L13.635 4.263C13.325 3.638 12.699 3.25 12.001 3.25C11.303 3.25 10.677 3.638 10.367 4.263L8.42398 8.18103C8.38798 8.25403 8.31799 8.30502 8.23599 8.31702L3.75406 8.96503C3.08806 9.06103 2.54602 9.51802 2.33902 10.158C2.13202 10.797 2.30309 11.484 2.78409 11.951L6.02505 15.097C6.08405 15.154 6.10998 15.236 6.09598 15.317L5.35501 19.618C5.23701 20.305 5.51403 20.987 6.07803 21.397C6.64303 21.809 7.38005 21.863 7.99905 21.539L11.8841 19.506C11.9181 19.488 11.9561 19.48 11.9931 19.479C11.9961 19.479 11.999 19.481 12.002 19.481C12.005 19.481 12.008 19.479 12.011 19.479C12.048 19.48 12.086 19.488 12.12 19.506L16.0081 21.541C16.2771 21.681 16.567 21.751 16.856 21.751C17.233 21.751 17.608 21.633 17.927 21.399C18.49 20.989 18.7671 20.308 18.6491 19.622L17.908 15.319C17.894 15.238 17.921 15.155 17.98 15.098L21.218 11.951ZM7.30203 20.209C7.14403 20.29 7.02101 20.228 6.95901 20.184C6.89901 20.14 6.80306 20.041 6.83206 19.872L7.57303 15.571C7.67103 15.001 7.48105 14.421 7.06705 14.02L3.82706 10.875C3.73006 10.781 3.74607 10.676 3.76407 10.621C3.78207 10.566 3.83207 10.47 3.96707 10.45L8.449 9.802C9.02 9.72 9.513 9.36198 9.767 8.84698L11.2491 5.85699V18.152C11.2281 18.162 11.2061 18.165 11.1861 18.176L7.30203 20.209ZM16.427 15.571L17.168 19.875C17.197 20.044 17.102 20.142 17.042 20.185C16.982 20.229 16.8561 20.292 16.7011 20.21L12.813 18.175C12.793 18.165 12.77 18.161 12.75 18.151V5.85699L14.231 8.84497C14.486 9.36097 14.9791 9.71903 15.5501 9.80103L20.032 10.449C20.167 10.469 20.218 10.564 20.235 10.62C20.253 10.675 20.268 10.78 20.172 10.874L16.933 14.018C16.519 14.421 16.329 15.001 16.427 15.571Z" fill="currentColor"/>
</svg>

<svg xmlns="http://www.w3.org/2000/svg" width="24" height="24" fill="none"><path fill="currentColor" d="M21.218 11.951a1.738 1.738 0 0 0 .445-1.793 1.74 1.74 0 0 0-1.415-1.193l-4.482-.648a.251.251 0 0 1-.189-.137l-1.942-3.917a1.813 1.813 0 0 0-1.634-1.013c-.698 0-1.324.388-1.634 1.013L8.424 8.181a.25.25 0 0 1-.188.136l-4.482.648a1.738 1.738 0 0 0-1.415 1.193 1.737 1.737 0 0 0 .445 1.793l3.241 3.146a.246.246 0 0 1 .071.22l-.741 4.301a1.808 1.808 0 0 0 .723 1.779 1.814 1.814 0 0 0 1.921.142l3.885-2.033a.247.247 0 0 1 .11-.027l.008.002.009-.002a.247.247 0 0 1 .109.027l3.888 2.035a1.807 1.807 0 0 0 1.919-.142c.563-.41.84-1.091.722-1.777l-.741-4.303a.249.249 0 0 1 .072-.221l3.238-3.147ZM7.302 20.209a.315.315 0 0 1-.343-.025.308.308 0 0 1-.127-.312l.741-4.301a1.747 1.747 0 0 0-.506-1.551l-3.24-3.145a.236.236 0 0 1-.063-.254.242.242 0 0 1 .203-.171l4.482-.648a1.746 1.746 0 0 0 1.318-.955l1.482-2.99v12.295c-.02.01-.043.013-.063.024l-3.884 2.033Zm9.125-4.638.741 4.304a.303.303 0 0 1-.126.31.31.31 0 0 1-.34.025l-3.889-2.035c-.02-.01-.043-.014-.063-.024V5.857l1.481 2.988c.255.516.748.874 1.32.956l4.481.648a.24.24 0 0 1 .203.171.238.238 0 0 1-.063.254l-3.239 3.144a1.752 1.752 0 0 0-.506 1.553Z"/></svg>
